X: 1578
T: Jack Smith's Waltz, "Oritava"
B: australian traditional tunes wiki
M:3/4
L:1/8
R: Waltz
Q: 1/4=100
K:G
V:1 
(3Adc|"G"B2D2D2|G2-G2(3BcB|"Am"A2E2E2|A2-A2A>G|"D"F2A2c2|f2-f2(3fgf|"C"e2d2d2|"D7"d2-d2d>c|
"G"B2D2D2|G2-G2 (3BcB|"Am"A2E2E2|A2-A2e>g|"D7"f2e2d2|c2E2F2|"C"G3GG2|"G"G2z2BA||
G2B2B>B|d2g2(3gag|"D7"f2A2B2|"Am"c2-c2e>g|"D7"f2A2B2|c2-c2(3fgf|"G"e2d2d2|"D"d2-d2d>c|
"G"B2B2B>B|d2g2(3gag|"D7"f2A2B2|"Am"c2-c2e>g|"D7"f2e2d2|c2E2F2|"C"G3GG2|"G"G2z2||
% abcbook-tune_id 6342d53af5df23e816e6658f


% abcbook-boost 0
% abcbook-tablature 
% abcbook-transpose 
% abcbook-lastupdated 1665324372156
% abcbook-soundfonts 
% abcbook-repeats 1
% NFF Book 2006

